remix/Others/game-line.svg

<svg viewBox="0 0 24 24" fill="currentColor" xmlns="http://www.w3.org/2000/svg"><path d="M12 2C15.1215 2 17.9089 3.43021 19.7428 5.67108L13.4142 12L19.7428 18.3289C17.9089 20.5698 15.1215 22 12 22C6.47715 22 2 17.5228 2 12C2 6.47715 6.47715 2 12 2ZM12 4C7.58172 4 4 7.58172 4 12C4 16.4183 7.58172 20 12 20C13.7232 20 15.3548 19.4531 16.6974 18.4774L16.905 18.32L10.5859 12L16.905 5.679L16.6974 5.52261C15.4338 4.60431 13.9142 4.06583 12.3031 4.00565L12 4ZM12 5C12.8284 5 13.5 5.67157 13.5 6.5C13.5 7.32843 12.8284 8 12 8C11.1716 8 10.5 7.32843 10.5 6.5C10.5 5.67157 11.1716 5 12 5Z"/></svg>

<svg viewBox="0 0 24 24" xmlns="http://www.w3.org/2000/svg"><path fill="none" d="M0 0h24v24H0Z"/><path d="M12 2v0c3-.01 5.84 1.34 7.74 3.67l-6.33 6.32 6.32 6.32v0c-1.9 2.32-4.75 3.67-7.75 3.67 -5.523 0-10-4.477-10-10 0-5.53 4.477-10 10-10Zm0 2v-.001c-4.42 0-8 3.58-8 8 0 4.41 3.58 7.99 8 7.99 1.68-.01 3.32-.54 4.69-1.53l.2-.16 -6.32-6.32 6.32-6.33 -.21-.16v0c-1.29-.94-2.82-1.46-4.4-1.52l-.31-.01Zm0 1v0c.82 0 1.5.67 1.5 1.5 0 .82-.68 1.5-1.5 1.5v0c-.83 0-1.5-.68-1.5-1.5 0-.83.67-1.5 1.5-1.5Z"/></svg>
